<?xml version="1.0" encoding="UTF-8"?>
<map version="1.10" tiledversion="1.10.2" orientation="orthogonal" renderorder="right-down" width="32" height="16" tilewidth="64" tileheight="64" infinite="0" nextlayerid="3" nextobjectid="61">
 <properties>
  <property name="zone" value="street"/>
  <property name="name" value="Phố đi bộ"/>
  <property name="name_en" value="Walking Street"/>
  <property name="sub" value="Lõi di sản: tiệm may, quà OCOP, nhà cổ, xưởng đèn lồng"/>
  <property name="sub_en" value="The heritage core: tailor shop, OCOP gifts, ancient houses and a lantern workshop"/>
  <property name="card" value="assets/scenes/street.webp"/>
  <property name="light" value="day"/>
 </properties>
 <tileset firstgid="1" name="hoian_dongho_tileset_64x64" tilewidth="64" tileheight="64" tilecount="72" columns="8">
  <image source="../../assets/tiles/hoian_dongho_grid_tileset_64x64.png" width="512" height="576"/>
  <tile id="16"><properties><property name="collides" type="bool" value="true"/></properties></tile>
  <tile id="17"><properties><property name="collides" type="bool" value="true"/></properties></tile>
  <tile id="18"><properties><property name="collides" type="bool" value="true"/></properties></tile>
  <tile id="19"><properties><property name="collides" type="bool" value="true"/></properties></tile>
  <tile id="20"><properties><property name="collides" type="bool" value="true"/></properties></tile>
  <tile id="21"><properties><property name="collides" type="bool" value="true"/></properties></tile>
  <tile id="22"><properties><property name="collides" type="bool" value="true"/></properties></tile>
  <tile id="23"><properties><property name="collides" type="bool" value="true"/></properties></tile>
  <tile id="24"><properties><property name="collides" type="bool" value="true"/></properties></tile>
  <tile id="25"><properties><property name="collides" type="bool" value="true"/></properties></tile>
  <tile id="26"><properties><property name="collides" type="bool" value="true"/></properties></tile>
  <tile id="27"><properties><property name="collides" type="bool" value="true"/></properties></tile>
  <tile id="28"><properties><property name="collides" type="bool" value="true"/></properties></tile>
  <tile id="29"><properties><property name="collides" type="bool" value="true"/></properties></tile>
  <tile id="30"><properties><property name="collides" type="bool" value="true"/></properties></tile>
  <tile id="31"><properties><property name="collides" type="bool" value="true"/></properties></tile>
  <tile id="34"><properties><property name="collides" type="bool" value="true"/></properties></tile>
  <tile id="35"><properties><property name="collides" type="bool" value="true"/></properties></tile>
 </tileset>
 <layer id="1" name="Ground" width="32" height="16">
  <data encoding="csv">
34,33,33,33,33,34,33,33,33,33,34,33,33,33,33,34,33,33,33,33,34,33,33,33,33,34,33,33,33,33,34,33,
33,33,34,33,33,33,33,34,33,33,33,33,34,33,33,33,33,34,33,33,33,33,34,33,33,33,33,34,33,33,33,33,
4,9,9,9,9,9,4,1,9,9,9,9,9,1,9,9,9,9,9,1,9,9,9,9,9,1,9,9,9,9,9,1,
1,9,9,9,9,9,1,4,9,9,9,9,9,4,9,9,9,9,9,4,9,9,9,9,9,4,9,9,9,9,9,4,
4,9,9,9,9,9,4,1,9,9,9,9,9,1,9,9,9,9,9,1,9,9,9,9,9,1,9,9,9,9,9,1,
1,9,9,9,9,9,1,4,9,9,9,9,9,4,9,9,9,9,9,4,9,9,9,9,9,4,9,9,9,9,9,4,
4,9,9,9,9,9,4,1,9,9,9,9,9,1,9,9,9,9,9,1,9,9,9,9,9,1,9,9,9,9,9,1,
1,9,9,9,9,9,1,4,9,9,9,9,9,4,9,9,9,9,9,4,9,9,9,9,9,4,9,9,9,9,9,4,
4,1,4,1,4,1,4,1,4,1,4,1,4,1,4,1,4,1,4,1,4,1,4,1,4,1,4,1,4,1,4,1,
1,4,1,4,1,4,1,4,1,4,1,4,1,4,1,4,1,4,1,4,1,4,1,4,1,4,1,4,1,4,1,4,
4,1,4,1,4,1,4,1,4,1,4,1,4,1,4,1,4,1,4,1,4,1,4,1,4,1,4,1,4,1,4,1,
10,10,10,10,10,10,10,10,10,10,10,10,10,10,10,10,10,10,10,10,10,10,10,10,10,10,10,10,10,10,10,10,
33,33,33,34,33,33,33,33,33,33,34,33,33,33,33,1,4,34,33,33,33,33,33,33,34,33,33,33,33,33,33,34,
33,33,9,9,9,9,9,9,9,9,9,9,9,33,33,4,1,33,33,9,9,9,9,9,9,9,9,9,9,9,33,33,
34,33,33,33,33,33,33,34,33,33,33,33,33,33,34,1,4,33,33,33,33,34,33,33,33,33,33,33,34,33,33,33,
33,33,34,33,33,33,33,33,33,34,33,33,33,33,33,4,1,33,33,33,33,33,33,34,33,33,33,33,33,33,34,33
</data>
 </layer>
 <objectgroup id="2" name="Objects">
  <object id="1" name="default" type="spawn" x="96" y="576" width="64" height="64">
   <properties>
    <property name="kind" value="spawn"/>
    <property name="facing" value="right"/>
   </properties>
  </object>
  <object id="2" name="to_ev" type="exit" x="0" y="512" width="64" height="192">
   <properties>
    <property name="kind" value="exit"/>
    <property name="to" value="ev"/>
    <property name="sx" type="float" value="23.5"/>
    <property name="sy" type="float" value="7"/>
    <property name="facing" value="left"/>
   </properties>
  </object>
  <object id="3" name="to_festival" type="exit" x="1984" y="512" width="64" height="192">
   <properties>
    <property name="kind" value="exit"/>
    <property name="to" value="festival"/>
    <property name="sx" type="float" value="1.5"/>
    <property name="sy" type="float" value="9"/>
    <property name="facing" value="right"/>
   </properties>
  </object>
  <object id="4" name="to_river" type="exit" x="960" y="960" width="128" height="64">
   <properties>
    <property name="kind" value="exit"/>
    <property name="to" value="river"/>
    <property name="sx" type="float" value="15"/>
    <property name="sy" type="float" value="1.2"/>
    <property name="facing" value="down"/>
   </properties>
  </object>
  <object id="5" name="tailor" type="building" x="64" y="384" width="320" height="128">
   <properties>
    <property name="kind" value="building"/>
    <property name="sprite" value="tailor"/>
   </properties>
  </object>
  <object id="6" name="ocop_shop" type="building" x="512" y="384" width="320" height="128">
   <properties>
    <property name="kind" value="building"/>
    <property name="sprite" value="workshop"/>
    <property name="sign" value="QUÀ LƯU NIỆM|OCOP"/>
    <property name="preset" value="ocop"/>
   </properties>
  </object>
  <object id="7" name="tan_ky" type="building" x="896" y="384" width="320" height="128">
   <properties>
    <property name="kind" value="building"/>
    <property name="sprite" value="tailor"/>
    <property name="flip" type="bool" value="true"/>
    <property name="sign" value="NHÀ CỔ|TẤN KÝ"/>
    <property name="preset" value="tanky"/>
   </properties>
  </object>
  <object id="8" name="workshop" type="building" x="1280" y="384" width="320" height="128">
   <properties>
    <property name="kind" value="building"/>
    <property name="sprite" value="workshop"/>
   </properties>
  </object>
  <object id="9" name="phung_hung" type="building" x="1664" y="384" width="320" height="128">
   <properties>
    <property name="kind" value="building"/>
    <property name="sprite" value="tailor"/>
    <property name="sign" value="NHÀ CỔ|PHÙNG HƯNG"/>
    <property name="preset" value="tanky"/>
   </properties>
  </object>
  <object id="10" name="" type="prop" x="282" y="518" width="77" height="29">
   <properties>
    <property name="kind" value="prop"/>
    <property name="img" value="workbench"/>
    <property name="ph" type="float" value="58"/>
    <property name="word" value="measuring-tape"/>
    <property name="solid" type="bool" value="true"/>
    <property name="on" value="[{&quot;img&quot;: &quot;fabric&quot;, &quot;h&quot;: 30, &quot;dx&quot;: -18, &quot;word&quot;: &quot;mulberry-silk&quot;}, {&quot;img&quot;: &quot;tape&quot;, &quot;h&quot;: 26, &quot;dx&quot;: 22, &quot;word&quot;: &quot;measuring-tape&quot;}]"/>
   </properties>
  </object>
  <object id="11" name="" type="prop" x="365" y="522" width="51" height="22">
   <properties>
    <property name="kind" value="prop"/>
    <property name="img" value="silkRoll"/>
    <property name="ph" type="float" value="48"/>
    <property name="word" value="silk-fabric"/>
    <property name="solid" type="bool" value="true"/>
   </properties>
  </object>
  <object id="12" name="" type="prop" x="698" y="518" width="77" height="29">
   <properties>
    <property name="kind" value="prop"/>
    <property name="img" value="workbench"/>
    <property name="ph" type="float" value="58"/>
    <property name="word" value="ocop-product"/>
    <property name="solid" type="bool" value="true"/>
    <property name="on" value="[{&quot;img&quot;: &quot;ocopTea&quot;, &quot;h&quot;: 54, &quot;dx&quot;: 0, &quot;word&quot;: &quot;ocop-product&quot;, &quot;spots&quot;: [[&quot;traceability&quot;, [130, 15, 80, 85]]]}]"/>
   </properties>
  </object>
  <object id="13" name="" type="prop" x="1165" y="518" width="32" height="22">
   <properties>
    <property name="kind" value="prop"/>
    <property name="img" value="tq_qr"/>
    <property name="ph" type="float" value="104"/>
    <property name="word" value="audio-guide"/>
    <property name="solid" type="bool" value="true"/>
   </properties>
  </object>
  <object id="14" name="" type="prop" x="1485" y="518" width="77" height="29">
   <properties>
    <property name="kind" value="prop"/>
    <property name="img" value="workbench"/>
    <property name="ph" type="float" value="58"/>
    <property name="word" value="workbench"/>
    <property name="solid" type="bool" value="true"/>
    <property name="on" value="[{&quot;draw&quot;: &quot;bambooFrame&quot;, &quot;h&quot;: 40, &quot;w&quot;: 38, &quot;dx&quot;: 0, &quot;word&quot;: &quot;bamboo-frame&quot;}]"/>
   </properties>
  </object>
  <object id="15" name="" type="prop" x="1933" y="518" width="32" height="22">
   <properties>
    <property name="kind" value="prop"/>
    <property name="img" value="tq_qr"/>
    <property name="ph" type="float" value="104"/>
    <property name="word" value="qr-code"/>
    <property name="solid" type="bool" value="true"/>
   </properties>
  </object>
  <object id="16" name="lanterns" type="strings" x="64" y="474" width="1920" height="230">
   <properties>
    <property name="kind" value="strings"/>
    <property name="draw" value="lanternStrings"/>
   </properties>
  </object>
  <object id="17" name="" type="prop" x="520" y="518" width="42" height="16">
   <properties>
    <property name="kind" value="prop"/>
    <property name="img" value="pot_palm_red"/>
    <property name="ph" type="float" value="62"/>
    <property name="quiet" type="bool" value="true"/>
    <property name="word" value="potted-plant"/>
    <property name="solid" type="bool" value="true"/>
   </properties>
  </object>
  <object id="18" name="" type="prop" x="906" y="518" width="38" height="16">
   <properties>
    <property name="kind" value="prop"/>
    <property name="img" value="pot_flower_blue"/>
    <property name="ph" type="float" value="54"/>
    <property name="quiet" type="bool" value="true"/>
    <property name="word" value="potted-plant"/>
    <property name="solid" type="bool" value="true"/>
   </properties>
  </object>
  <object id="19" name="" type="prop" x="1106" y="518" width="35" height="16">
   <properties>
    <property name="kind" value="prop"/>
    <property name="img" value="pot_flower_red"/>
    <property name="ph" type="float" value="54"/>
    <property name="quiet" type="bool" value="true"/>
    <property name="word" value="potted-plant"/>
    <property name="solid" type="bool" value="true"/>
   </properties>
  </object>
  <object id="20" name="" type="prop" x="1284" y="518" width="49" height="16">
   <properties>
    <property name="kind" value="prop"/>
    <property name="img" value="pot_banana"/>
    <property name="ph" type="float" value="64"/>
    <property name="quiet" type="bool" value="true"/>
    <property name="word" value="potted-plant"/>
    <property name="solid" type="bool" value="true"/>
   </properties>
  </object>
  <object id="21" name="" type="prop" x="1672" y="518" width="42" height="16">
   <properties>
    <property name="kind" value="prop"/>
    <property name="img" value="pot_plant_blue"/>
    <property name="ph" type="float" value="58"/>
    <property name="quiet" type="bool" value="true"/>
    <property name="word" value="potted-plant"/>
    <property name="solid" type="bool" value="true"/>
   </properties>
  </object>
  <object id="22" name="" type="prop" x="1874" y="518" width="35" height="16">
   <properties>
    <property name="kind" value="prop"/>
    <property name="img" value="pot_flower_clay"/>
    <property name="ph" type="float" value="54"/>
    <property name="quiet" type="bool" value="true"/>
    <property name="word" value="potted-plant"/>
    <property name="solid" type="bool" value="true"/>
   </properties>
  </object>
  <object id="23" name="" type="prop" x="905" y="778" width="39" height="19">
   <properties>
    <property name="kind" value="prop"/>
    <property name="img" value="stone_lantern"/>
    <property name="ph" type="float" value="76"/>
    <property name="quiet" type="bool" value="true"/>
    <property name="word" value="stone-lantern"/>
    <property name="solid" type="bool" value="true"/>
    <property name="glow" value="0.5,0.42"/>
   </properties>
  </object>
  <object id="24" name="" type="prop" x="1104" y="778" width="39" height="19">
   <properties>
    <property name="kind" value="prop"/>
    <property name="img" value="stone_lantern"/>
    <property name="ph" type="float" value="76"/>
    <property name="quiet" type="bool" value="true"/>
    <property name="word" value="stone-lantern"/>
    <property name="solid" type="bool" value="true"/>
    <property name="glow" value="0.5,0.42"/>
   </properties>
  </object>
  <object id="25" name="" type="prop" x="306" y="922" width="181" height="19">
   <properties>
    <property name="kind" value="prop"/>
    <property name="img" value="arbor"/>
    <property name="ph" type="float" value="128"/>
    <property name="quiet" type="bool" value="true"/>
    <property name="word" value="trellis"/>
   </properties>
  </object>
  <object id="26" name="" type="prop" x="1522" y="922" width="181" height="19">
   <properties>
    <property name="kind" value="prop"/>
    <property name="img" value="arbor"/>
    <property name="ph" type="float" value="128"/>
    <property name="quiet" type="bool" value="true"/>
    <property name="word" value="trellis"/>
   </properties>
  </object>
  <object id="27" name="" type="prop" x="98" y="957" width="61" height="19">
   <properties>
    <property name="kind" value="prop"/>
    <property name="img" value="flower_bush"/>
    <property name="ph" type="float" value="40"/>
    <property name="quiet" type="bool" value="true"/>
   </properties>
  </object>
  <object id="28" name="" type="prop" x="1864" y="835" width="61" height="19">
   <properties>
    <property name="kind" value="prop"/>
    <property name="img" value="flower_bush"/>
    <property name="ph" type="float" value="40"/>
    <property name="quiet" type="bool" value="true"/>
   </properties>
  </object>
  <object id="29" name="" type="prop" x="372" y="490" width="88" height="19">
   <properties>
    <property name="kind" value="prop"/>
    <property name="img" value="hanging_flower"/>
    <property name="ph" type="float" value="96"/>
    <property name="quiet" type="bool" value="true"/>
   </properties>
  </object>
  <object id="30" name="" type="prop" x="775" y="490" width="49" height="19">
   <properties>
    <property name="kind" value="prop"/>
    <property name="img" value="hanging_green"/>
    <property name="ph" type="float" value="92"/>
    <property name="quiet" type="bool" value="true"/>
    <property name="flip" type="bool" value="true"/>
   </properties>
  </object>
  <object id="31" name="" type="tree" x="192" y="794" width="38" height="22">
   <properties>
    <property name="kind" value="tree"/>
    <property name="variant" value="banyan"/>
   </properties>
  </object>
  <object id="32" name="" type="tree" x="550" y="922" width="38" height="22">
   <properties>
    <property name="kind" value="tree"/>
    <property name="variant" value="bougainvillea"/>
   </properties>
  </object>
  <object id="33" name="" type="tree" x="806" y="800" width="38" height="22">
   <properties>
    <property name="kind" value="tree"/>
    <property name="variant" value="areca"/>
   </properties>
  </object>
  <object id="34" name="" type="tree" x="1242" y="800" width="38" height="22">
   <properties>
    <property name="kind" value="tree"/>
    <property name="variant" value="areca"/>
   </properties>
  </object>
  <object id="35" name="" type="tree" x="1741" y="922" width="38" height="22">
   <properties>
    <property name="kind" value="tree"/>
    <property name="variant" value="bougainvillea"/>
   </properties>
  </object>
  <object id="36" name="" type="tree" x="1869" y="794" width="38" height="22">
   <properties>
    <property name="kind" value="tree"/>
    <property name="variant" value="banyan"/>
   </properties>
  </object>
  <object id="37" name="" type="tree" x="38" y="26" width="38" height="22">
   <properties>
    <property name="kind" value="tree"/>
    <property name="variant" value="bamboo"/>
   </properties>
  </object>
  <object id="38" name="" type="tree" x="416" y="26" width="38" height="22">
   <properties>
    <property name="kind" value="tree"/>
    <property name="variant" value="areca"/>
   </properties>
  </object>
  <object id="39" name="" type="tree" x="800" y="32" width="38" height="22">
   <properties>
    <property name="kind" value="tree"/>
    <property name="variant" value="bamboo"/>
   </properties>
  </object>
  <object id="40" name="" type="tree" x="1178" y="26" width="38" height="22">
   <properties>
    <property name="kind" value="tree"/>
    <property name="variant" value="areca"/>
   </properties>
  </object>
  <object id="41" name="" type="tree" x="1574" y="32" width="38" height="22">
   <properties>
    <property name="kind" value="tree"/>
    <property name="variant" value="bamboo"/>
   </properties>
  </object>
  <object id="42" name="" type="tree" x="1958" y="26" width="38" height="22">
   <properties>
    <property name="kind" value="tree"/>
    <property name="variant" value="areca"/>
   </properties>
  </object>
  <object id="43" name="" type="prop" x="1408" y="806" width="128" height="38">
   <properties>
    <property name="kind" value="prop"/>
    <property name="img" value="tq_stall"/>
    <property name="ph" type="float" value="122"/>
    <property name="word" value="folding-lantern"/>
    <property name="solid" type="bool" value="true"/>
    <property name="glow" value="0.2,0.4;0.82,0.42"/>
   </properties>
  </object>
  <object id="44" name="" type="prop" x="825" y="720" width="65" height="19">
   <properties>
    <property name="kind" value="prop"/>
    <property name="img" value="tq_cyclo"/>
    <property name="ph" type="float" value="62"/>
    <property name="quiet" type="bool" value="true"/>
    <property name="word" value="cyclo"/>
    <property name="solid" type="bool" value="true"/>
   </properties>
  </object>
  <object id="45" name="" type="prop" x="558" y="890" width="75" height="19">
   <properties>
    <property name="kind" value="prop"/>
    <property name="img" value="tq_baskets"/>
    <property name="ph" type="float" value="44"/>
    <property name="quiet" type="bool" value="true"/>
    <property name="word" value="bamboo-basket"/>
   </properties>
  </object>
  <object id="46" name="" type="prop" x="1230" y="909" width="88" height="19">
   <properties>
    <property name="kind" value="prop"/>
    <property name="img" value="tq_tea_table"/>
    <property name="ph" type="float" value="58"/>
    <property name="quiet" type="bool" value="true"/>
    <property name="word" value="iced-tea"/>
   </properties>
  </object>
  <object id="47" name="" type="prop" x="358" y="934" width="77" height="22">
   <properties>
    <property name="kind" value="prop"/>
    <property name="draw" value="bench"/>
    <property name="ph" type="float" value="40"/>
    <property name="solid" type="bool" value="true"/>
   </properties>
  </object>
  <object id="48" name="" type="prop" x="1574" y="934" width="77" height="22">
   <properties>
    <property name="kind" value="prop"/>
    <property name="draw" value="bench"/>
    <property name="ph" type="float" value="40"/>
    <property name="solid" type="bool" value="true"/>
   </properties>
  </object>
  <object id="49" name="sarah" type="npc" x="166" y="595" width="64" height="64">
   <properties>
    <property name="kind" value="npc"/>
    <property name="facing" value="down"/>
    <property name="until" value="q_tailor"/>
   </properties>
  </object>
  <object id="50" name="sarah" type="npc" x="742" y="826" width="64" height="64">
   <properties>
    <property name="kind" value="npc"/>
    <property name="facing" value="left"/>
    <property name="after" value="q_tailor"/>
    <property name="until" value="all"/>
   </properties>
  </object>
  <object id="51" name="q_tailor" type="finale" x="74" y="506" width="58" height="27">
   <properties>
    <property name="kind" value="finale"/>
    <property name="act" value="aodai"/>
   </properties>
  </object>
  <object id="52" name="q_lantern" type="finale" x="1530" y="480" width="0" height="61">
   <properties>
    <property name="kind" value="finale"/>
    <property name="act" value="hang"/>
   </properties>
  </object>
  <object id="53" name="minh" type="npc" x="422" y="576" width="64" height="64">
   <properties>
    <property name="kind" value="npc"/>
    <property name="facing" value="down"/>
   </properties>
  </object>
  <object id="54" name="emma" type="npc" x="1395" y="595" width="64" height="64">
   <properties>
    <property name="kind" value="npc"/>
    <property name="facing" value="down"/>
    <property name="until" value="all"/>
   </properties>
  </object>
  <object id="55" name="vendor" type="npc" x="653" y="832" width="64" height="64">
   <properties>
    <property name="kind" value="npc"/>
    <property name="facing" value="down"/>
   </properties>
  </object>
  <object id="56" name="tea_3" type="collectible" x="416" y="205" width="64" height="64">
   <properties>
    <property name="kind" value="collectible"/>
    <property name="type" value="tea"/>
   </properties>
  </object>
  <object id="57" name="tea_4" type="collectible" x="1760" y="806" width="64" height="64">
   <properties>
    <property name="kind" value="collectible"/>
    <property name="type" value="tea"/>
   </properties>
  </object>
  <object id="58" name="bk_arrange" type="collectible" x="474" y="653" width="64" height="64">
   <properties>
    <property name="kind" value="collectible"/>
    <property name="type" value="booklet"/>
   </properties>
  </object>
  <object id="59" name="bk_passive" type="collectible" x="1088" y="666" width="64" height="64">
   <properties>
    <property name="kind" value="collectible"/>
    <property name="type" value="booklet"/>
   </properties>
  </object>
  <object id="60" name="bk_steps" type="collectible" x="1632" y="659" width="64" height="64">
   <properties>
    <property name="kind" value="collectible"/>
    <property name="type" value="booklet"/>
   </properties>
  </object>
 </objectgroup>
</map>
